modules/hawcons-stroke/icons/icon-16-two-fingers-resize-in.svg

<?xml version="1.0" encoding="UTF-8" standalone="no"?>
<svg width="32px" height="32px" viewBox="0 0 32 32" version="1.1" xmlns="http://www.w3.org/2000/svg" xmlns:xlink="http://www.w3.org/1999/xlink" xmlns:sketch="http://www.bohemiancoding.com/sketch/ns">
    <!-- Generator: Sketch 3.0.3 (7891) - http://www.bohemiancoding.com/sketch -->
    <title>icon 16 two fingers resize in</title>
    <desc>Created with Sketch.</desc>
    <defs></defs>
    <g id="Page-1" stroke="none" stroke-width="1" fill="none" fill-rule="evenodd" sketch:type="MSPage">
        <g id="icon-16-two-fingers-resize-in" sketch:type="MSArtboardGroup" fill="#929292">
            <path d="M13.0660904,1 L13.7731972,1.70710678 L9.65979573,5.8205082 L12.8865986,5.8205082 L12.8865986,6.8205082 L7.88659858,6.8205082 L7.88659858,1.8205082 L8.88659858,1.8205082 L8.88659858,5.1794918 L13.0660904,1 L13.0660904,1 Z M1.70710678,13.6410164 L1,12.9339096 L5.11340142,8.8205082 L1.88659858,8.8205082 L1.88659858,7.8205082 L6.88659858,7.8205082 L6.88659858,12.8205082 L5.88659858,12.8205082 L5.88659858,9.46152461 L1.70710678,13.6410164 L1.70710678,13.6410164 Z M30.8865986,23.3205082 C30.8865986,28.0149288 27.0810192,31.8205082 22.3865986,31.8205085 C19.2736834,31.8205085 15.9884056,30.3679938 13.7274189,26.2487311 C10.4639303,20.3030241 6.29045143,16.4037159 8.27771185,14.4164555 C9.69936094,12.9948064 11.9314402,14.358675 13.8865986,16.187295 L13.8865986,16.187295 L13.8865986,7.32891675 C13.8865986,5.93592568 15.0058867,4.8205082 16.3865986,4.8205082 C17.0248482,4.8205082 17.603949,5.05717673 18.0437042,5.44724399 C18.3981747,4.49569952 19.313418,3.8205082 20.3865986,3.8205082 C21.7769365,3.8205082 22.8865986,4.94134369 22.8865986,6.32396433 L22.8865986,13.3226448 C23.3044288,13.0078763 23.8237956,12.8205082 24.3865986,12.8205082 C25.7769365,12.8205082 26.8865986,13.9387338 26.8865986,15.3181349 L26.8865986,15.3315965 C27.3044288,15.019024 27.8237956,14.8346992 28.3865986,14.8346992 C29.7769365,14.8346992 30.8865986,15.9540437 30.8865986,17.334825 L30.8865986,23.3205082 L30.8865986,23.3205082 Z M22.3865986,30.8205082 C18.6268835,30.82005 16.3965944,28.7693957 14.6339741,25.8036018 C10.7219606,19.2212298 7.9204615,16.2092644 9.00763129,15.1162235 C10.1182284,13.9996288 12.828199,16.4184325 14.8865986,18.6188533 L14.8865986,7.32574936 C14.8865986,6.48763796 15.5581715,5.8205082 16.3865986,5.8205082 C17.2208013,5.8205082 17.8865986,6.49442762 17.8865986,7.32574936 L17.8865986,17.8205082 L18.8865986,17.8205082 L18.8865986,6.31140634 C18.8865986,5.49672826 19.5581715,4.8205082 20.3865986,4.8205082 C21.2208013,4.8205082 21.8865986,5.48800603 21.8865986,6.31140634 L21.8865986,16.8205082 L22.8865986,16.8205082 L22.8865986,15.3269467 C22.8865986,14.4920488 23.5581715,13.8205082 24.3865986,13.8205082 C25.2208013,13.8205082 25.8865986,14.4949637 25.8865986,15.3269467 L25.8865986,17.8205082 L26.8865986,17.8205082 L26.8865986,17.3221838 C26.8865986,16.4916976 27.5581715,15.8205082 28.3865986,15.8205082 C29.2208013,15.8205082 29.8865986,16.4928313 29.8865986,17.3221838 L29.8865986,19.5696704 L29.8865986,23.3205082 C29.8865986,27.462644 26.5287344,30.8205082 22.3865986,30.8205082 L22.3865986,30.8205082 L22.3865986,30.8205082 Z" id="two-fingers-resize-in" sketch:type="MSShapeGroup"></path>
        </g>
    </g>
</svg>

<svg width="32" height="32" xmlns="http://www.w3.org/2000/svg"><path d="M13.066 1l.707.707L9.66 5.821h3.227v1h-5v-5h1v3.358L13.067 1zM1.707 13.641L1 12.934 5.113 8.82H1.887v-1h5v5h-1V9.46l-4.18 4.18zm29.18 9.68a8.5 8.5 0 0 1-8.5 8.5c-3.113 0-6.399-1.453-8.66-5.572-3.263-5.946-7.437-9.845-5.45-11.833 1.422-1.421 3.654-.057 5.61 1.771V7.33a2.5 2.5 0 0 1 4.157-1.882 2.499 2.499 0 0 1 2.343-1.626c1.39 0 2.5 1.12 2.5 2.503v6.999a2.485 2.485 0 0 1 1.5-.502c1.39 0 2.5 1.118 2.5 2.497v.014a2.495 2.495 0 0 1 1.5-.497c1.39 0 2.5 1.119 2.5 2.5v5.986zm-8.5 7.5c-3.76-.001-5.99-2.052-7.753-5.017-3.912-6.583-6.714-9.595-5.626-10.688 1.11-1.116 3.82 1.302 5.879 3.503V7.326a1.499 1.499 0 1 1 3 0V17.82h1V6.31a1.501 1.501 0 0 1 3 0v10.51h1v-1.494a1.5 1.5 0 1 1 3 0v2.494h1v-.499a1.5 1.5 0 1 1 3 0v5.998a7.5 7.5 0 0 1-7.5 7.5z" fill="#929292" fill-rule="evenodd"/></svg>
